icons/System/refresh-fill.svg

<svg viewBox="0 0 24 24" xmlns="http://www.w3.org/2000/svg"><path d="M12 22C6.47715 22 2 17.5228 2 12C2 6.47715 6.47715 2 12 2C17.5228 2 22 6.47715 22 12C22 17.5228 17.5228 22 12 22ZM16.8201 17.0761C18.1628 15.8007 19 13.9981 19 12C19 8.13401 15.866 5 12 5C10.9391 5 9.9334 5.23599 9.03241 5.65834L10.0072 7.41292C10.6177 7.14729 11.2917 7 12 7C14.7614 7 17 9.23858 17 12H14L16.8201 17.0761ZM14.9676 18.3417L13.9928 16.5871C13.3823 16.8527 12.7083 17 12 17C9.23858 17 7 14.7614 7 12H10L7.17993 6.92387C5.83719 8.19929 5 10.0019 5 12C5 15.866 8.13401 19 12 19C13.0609 19 14.0666 18.764 14.9676 18.3417Z"/></svg>

<svg xmlns="http://www.w3.org/2000/svg" viewBox="0 0 24 24">
    <g>
        <path fill="none" d="M0 0h24v24H0z"/>
        <path d="M12 22C6.477 22 2 17.523 2 12S6.477 2 12 2s10 4.477 10 10-4.477 10-10 10zm4.82-4.924A7 7 0 0 0 9.032 5.658l.975 1.755A5 5 0 0 1 17 12h-3l2.82 5.076zm-1.852 1.266l-.975-1.755A5 5 0 0 1 7 12h3L7.18 6.924a7 7 0 0 0 7.788 11.418z"/>
    </g>
</svg>
